fuel.svg

<svg fill="currentColor" viewBox="0 0 24 24"><path d="M3 2h3c.28 0 .53.11.71.29l2.08 2.09.8-.79C10 3.2 10.5 3 11 3h6c.5 0 1 .2 1.41.59l1 1C19.8 5 20 5.5 20 6v13a2 2 0 0 1-2 2H8a2 2 0 0 1-2-2V8c0-.5.2-1 .59-1.41l.79-.8L5.59 4H3zm8 3v2h6V5zm.41 6-2-2H8v1.41l2 2v3.18l-2 2V19h1.41l2-2h3.18l2 2H18v-1.41l-2-2v-3.18l2-2V9h-1.41l-2 2zm.59 2h2v2h-2z"/></svg>

<svg  viewBox="0 0 24 24" fill="currentColor"><path  d="M3,2H6C6.28,2 6.53,2.11 6.71,2.29L8.79,4.38L9.59,3.59C10,3.2 10.5,3 11,3H17C17.5,3 18,3.2 18.41,3.59L19.41,4.59C19.8,5 20,5.5 20,6V19A2,2 0 0,1 18,21H8A2,2 0 0,1 6,19V13L6,12V8C6,7.5 6.2,7 6.59,6.59L7.38,5.79L5.59,4H3V2M11,5V7H17V5H11M11.41,11L9.41,9H8V10.41L10,12.41V15.59L8,17.59V19H9.41L11.41,17H14.59L16.59,19H18V17.59L16,15.59V12.41L18,10.41V9H16.59L14.59,11H11.41M12,13H14V15H12V13Z"/></svg>
